src/assets/icons/user.svg

<svg width="100%" height="100%" viewBox="0 0 442 442" fill="none" xmlns="http://www.w3.org/2000/svg">
<g clip-path="url(#clip0)">
<path d="M220.766 0.00891113C98.8531 0.00891113 0 98.8426 0 220.765C0 342.688 98.8434 441.521 220.766 441.521C342.698 441.521 441.532 342.688 441.532 220.765C441.532 98.8426 342.698 0.00891113 220.766 0.00891113ZM220.766 66.0176C261.106 66.0176 293.795 98.7165 293.795 139.037C293.795 179.368 261.106 212.057 220.766 212.057C180.445 212.057 147.756 179.368 147.756 139.037C147.756 98.7165 180.445 66.0176 220.766 66.0176ZM220.718 383.804C180.484 383.804 143.635 369.151 115.212 344.899C108.288 338.993 104.293 330.334 104.293 321.247C104.293 280.354 137.39 247.626 178.292 247.626H263.259C304.171 247.626 337.142 280.354 337.142 321.247C337.142 330.343 333.166 338.984 326.233 344.889C297.82 369.151 260.961 383.804 220.718 383.804Z" fill="#444444"/>
</g>
<defs>
<clipPath id="clip0">
<rect width="441.532" height="441.532" fill="white"/>
</clipPath>
</defs>
</svg>

<svg xmlns="http://www.w3.org/2000/svg" width="100%" height="100%" viewBox="0 0 442 442" fill="none"><g clip-path="url(#A)"><path d="M220.766.009C98.853.009 0 98.843 0 220.765s98.843 220.756 220.766 220.756c121.932 0 220.766-98.833 220.766-220.756S342.698.009 220.766.009zm0 66.009c40.34 0 73.029 32.699 73.029 73.019 0 40.331-32.689 73.02-73.029 73.02-40.321 0-73.01-32.689-73.01-73.02 0-40.321 32.689-73.019 73.01-73.019zm-.048 317.786c-40.234 0-77.083-14.653-105.506-38.905-6.924-5.906-10.919-14.565-10.919-23.652 0-40.893 33.097-73.621 73.999-73.621h84.967c40.912 0 73.883 32.728 73.883 73.621a31.04 31.04 0 0 1-10.909 23.642c-28.413 24.262-65.272 38.915-105.515 38.915z" fill="#444"/></g><defs><clipPath id="A"><path fill="#fff" d="M0 0h441.532v441.532H0z"/></clipPath></defs></svg>
